packages/icons/src/components/Icon/assets/default-outline/lock.svg

<svg width="20" height="20" viewBox="0 0 20 20" fill="none" xmlns="http://www.w3.org/2000/svg">
<path fill-rule="evenodd" clip-rule="evenodd" d="M5.94635 6.05128C5.94635 3.81382 7.76017 2 9.99763 2C12.2351 2 14.0489 3.81382 14.0489 6.05128V8.20732C15.3042 8.26102 16.3053 9.29564 16.3053 10.5641V15.641C16.3053 16.9439 15.2492 18 13.9464 18H6.04892C4.74609 18 3.68994 16.9439 3.68994 15.641V10.5641C3.68994 9.29564 4.69111 8.26102 5.94635 8.20732V6.05128ZM6.04892 9.53846C5.48247 9.53846 5.02327 9.99766 5.02327 10.5641V15.641C5.02327 16.2075 5.48247 16.6667 6.04892 16.6667H13.9464C14.5128 16.6667 14.972 16.2075 14.972 15.641V10.5641C14.972 9.99766 14.5128 9.53846 13.9464 9.53846H6.04892ZM12.7156 8.20513H7.27969V6.05128C7.27969 4.5502 8.49655 3.33333 9.99763 3.33333C11.4987 3.33333 12.7156 4.5502 12.7156 6.05128V8.20513Z" fill="#727683"/>
</svg>

<svg xmlns="http://www.w3.org/2000/svg" width="20" height="20" fill="none" viewBox="0 0 20 20">
    <path fill="#727683" fill-rule="evenodd" d="M5.946 6.051a4.051 4.051 0 0 1 8.103 0v2.156a2.36 2.36 0 0 1 2.256 2.357v5.077A2.36 2.36 0 0 1 13.946 18H6.05a2.36 2.36 0 0 1-2.36-2.359v-5.077a2.36 2.36 0 0 1 2.257-2.357zm.103 3.487c-.567 0-1.026.46-1.026 1.026v5.077c0 .566.46 1.026 1.026 1.026h7.897c.567 0 1.026-.46 1.026-1.026v-5.077c0-.566-.46-1.026-1.026-1.026zm6.667-1.333H7.28V6.051a2.718 2.718 0 1 1 5.436 0z" clip-rule="evenodd"/>
</svg>
